X: 152
T: Row Well Ye Mariners
M:6/8
L:1/8
Q:160
S:Playford
O:Manuscript
A:English
K:A
A|G2 F G2 A|B3 B2 e|ded cBc|B2 A A2 A|G2 F G2 A|B3 B2 c|ded cBc| B3 A A2 :|
|: e|efe B2 c|dec B2 e|efe B2 c|dec B2:|
|:A|ABA G2 F|BGE A2 A ABA G2 A|BGE A2 :|
|: e3 d3|e3 d3|e2 f e2 d|c B2 A2 z:|

